images/service-1/responsibilities-6.svg

<svg width="75" height="75" viewBox="0 0 75 75" fill="none" xmlns="http://www.w3.org/2000/svg">
<path d="M5.85938 4.6875C3.92303 4.6875 2.34375 6.26678 2.34375 8.20312V17.5781C2.34375 18.4799 2.69623 19.2993 3.25928 19.9219C2.69623 20.5444 2.34375 21.3638 2.34375 22.2656V33.9844C2.34375 34.8862 2.69623 35.7056 3.25928 36.3281C2.69623 36.9507 2.34375 37.7701 2.34375 38.6719V50.3906C2.34375 51.2924 2.69623 52.1118 3.25928 52.7344C2.69623 53.3569 2.34375 54.1763 2.34375 55.0781V64.4531C2.34375 66.3895 3.92303 67.9688 5.85938 67.9688H22.2656C23.1674 67.9688 23.9868 67.6163 24.6094 67.0532C25.2319 67.6163 26.0513 67.9688 26.9531 67.9688H45.7031C46.6049 67.9688 47.4243 67.6163 48.0469 67.0532C48.6694 67.6163 49.4888 67.9688 50.3906 67.9688H69.1406C71.077 67.9688 72.6562 66.3895 72.6562 64.4531V55.0781C72.6562 54.1763 72.3038 53.3569 71.7407 52.7344C72.3038 52.1118 72.6562 51.2924 72.6562 50.3906V38.6719C72.6562 37.7701 72.3038 36.9507 71.7407 36.3281C72.3038 35.7056 72.6562 34.8862 72.6562 33.9844V22.2656C72.6562 21.3638 72.3038 20.5444 71.7407 19.9219C72.3038 19.2993 72.6562 18.4799 72.6562 17.5781V8.20312C72.6562 6.26678 71.077 4.6875 69.1406 4.6875H63.2812C62.3795 4.6875 61.5601 5.03998 60.9375 5.60303C60.3149 5.03998 59.4955 4.6875 58.5938 4.6875H39.8438C38.942 4.6875 38.1226 5.03998 37.5 5.60303C36.8774 5.03998 36.058 4.6875 35.1562 4.6875H16.4062C15.5045 4.6875 14.6851 5.03998 14.0625 5.60303C13.4399 5.03998 12.6205 4.6875 11.7188 4.6875H5.85938ZM5.85938 7.03125H11.7188C12.3642 7.03125 12.8906 7.55768 12.8906 8.20312V17.5781C12.8906 18.2236 12.3642 18.75 11.7188 18.75H5.85938C5.21393 18.75 4.6875 18.2236 4.6875 17.5781V8.20312C4.6875 7.55768 5.21393 7.03125 5.85938 7.03125ZM16.4062 7.03125H35.1562C35.8017 7.03125 36.3281 7.55768 36.3281 8.20312V17.5781C36.3281 18.2236 35.8017 18.75 35.1562 18.75H16.4062C15.7608 18.75 15.2344 18.2236 15.2344 17.5781V8.20312C15.2344 7.55768 15.7608 7.03125 16.4062 7.03125ZM39.8438 7.03125H58.5938C59.2392 7.03125 59.7656 7.55768 59.7656 8.20312V17.5781C59.7656 18.2236 59.2392 18.75 58.5938 18.75H39.8438C39.1983 18.75 38.6719 18.2236 38.6719 17.5781V8.20312C38.6719 7.55768 39.1983 7.03125 39.8438 7.03125ZM63.2812 7.03125H69.1406C69.7861 7.03125 70.3125 7.55768 70.3125 8.20312V17.5781C70.3125 18.2236 69.7861 18.75 69.1406 18.75H63.2812C62.6358 18.75 62.1094 18.2236 62.1094 17.5781V8.20312C62.1094 7.55768 62.6358 7.03125 63.2812 7.03125ZM5.85938 21.0938H22.2656C22.9111 21.0938 23.4375 21.6202 23.4375 22.2656V33.9844C23.4375 34.6298 22.9111 35.1562 22.2656 35.1562H5.85938C5.21393 35.1562 4.6875 34.6298 4.6875 33.9844V22.2656C4.6875 21.6202 5.21393 21.0938 5.85938 21.0938ZM26.9531 21.0938H45.7031C46.3486 21.0938 46.875 21.6202 46.875 22.2656V33.9844C46.875 34.6298 46.3486 35.1562 45.7031 35.1562H26.9531C26.3077 35.1562 25.7812 34.6298 25.7812 33.9844V22.2656C25.7812 21.6202 26.3077 21.0938 26.9531 21.0938ZM50.3906 21.0938H69.1406C69.7861 21.0938 70.3125 21.6202 70.3125 22.2656V33.9844C70.3125 34.6298 69.7861 35.1562 69.1406 35.1562H50.3906C49.7452 35.1562 49.2188 34.6298 49.2188 33.9844V22.2656C49.2188 21.6202 49.7452 21.0938 50.3906 21.0938ZM5.85938 37.5H11.7188C12.3642 37.5 12.8906 38.0264 12.8906 38.6719V50.3906C12.8906 51.0361 12.3642 51.5625 11.7188 51.5625H5.85938C5.21393 51.5625 4.6875 51.0361 4.6875 50.3906V38.6719C4.6875 38.0264 5.21393 37.5 5.85938 37.5ZM16.4062 37.5H35.1562C35.8017 37.5 36.3281 38.0264 36.3281 38.6719V50.3906C36.3281 51.0361 35.8017 51.5625 35.1562 51.5625H16.4062C15.7608 51.5625 15.2344 51.0361 15.2344 50.3906V38.6719C15.2344 38.0264 15.7608 37.5 16.4062 37.5ZM39.8438 37.5H58.5938C59.2392 37.5 59.7656 38.0264 59.7656 38.6719V50.3906C59.7656 51.0361 59.2392 51.5625 58.5938 51.5625H39.8438C39.1983 51.5625 38.6719 51.0361 38.6719 50.3906V38.6719C38.6719 38.0264 39.1983 37.5 39.8438 37.5ZM63.2812 37.5H69.1406C69.7861 37.5 70.3125 38.0264 70.3125 38.6719V50.3906C70.3125 51.0361 69.7861 51.5625 69.1406 51.5625H63.2812C62.6358 51.5625 62.1094 51.0361 62.1094 50.3906V38.6719C62.1094 38.0264 62.6358 37.5 63.2812 37.5ZM5.85938 53.9062H22.2656C22.9111 53.9062 23.4375 54.4327 23.4375 55.0781V64.4531C23.4375 65.0986 22.9111 65.625 22.2656 65.625H5.85938C5.21393 65.625 4.6875 65.0986 4.6875 64.4531V55.0781C4.6875 54.4327 5.21393 53.9062 5.85938 53.9062ZM26.9531 53.9062H45.7031C46.3486 53.9062 46.875 54.4327 46.875 55.0781V64.4531C46.875 65.0986 46.3486 65.625 45.7031 65.625H26.9531C26.3077 65.625 25.7812 65.0986 25.7812 64.4531V55.0781C25.7812 54.4327 26.3077 53.9062 26.9531 53.9062ZM50.3906 53.9062H69.1406C69.7861 53.9062 70.3125 54.4327 70.3125 55.0781V64.4531C70.3125 65.0986 69.7861 65.625 69.1406 65.625H50.3906C49.7452 65.625 49.2188 65.0986 49.2188 64.4531V55.0781C49.2188 54.4327 49.7452 53.9062 50.3906 53.9062ZM8.20312 58.5938C7.5531 58.5938 7.03125 59.1156 7.03125 59.7656V62.1094C7.03125 62.7594 7.5531 63.2812 8.20312 63.2812C8.85315 63.2812 9.375 62.7594 9.375 62.1094V59.7656C9.375 59.1156 8.85315 58.5938 8.20312 58.5938ZM14.0625 58.5938C13.4125 58.5938 12.8906 59.1156 12.8906 59.7656V62.1094C12.8906 62.7594 13.4125 63.2812 14.0625 63.2812C14.7125 63.2812 15.2344 62.7594 15.2344 62.1094V59.7656C15.2344 59.1156 14.7125 58.5938 14.0625 58.5938ZM19.9219 58.5938C19.2719 58.5938 18.75 59.1156 18.75 59.7656V62.1094C18.75 62.7594 19.2719 63.2812 19.9219 63.2812C20.5719 63.2812 21.0938 62.7594 21.0938 62.1094V59.7656C21.0938 59.1156 20.5719 58.5938 19.9219 58.5938ZM30.4688 58.5938C29.8187 58.5938 29.2969 59.1156 29.2969 59.7656V62.1094C29.2969 62.7594 29.8187 63.2812 30.4688 63.2812C31.1188 63.2812 31.6406 62.7594 31.6406 62.1094V59.7656C31.6406 59.1156 31.1188 58.5938 30.4688 58.5938ZM36.3281 58.5938C35.6781 58.5938 35.1562 59.1156 35.1562 59.7656V62.1094C35.1562 62.7594 35.6781 63.2812 36.3281 63.2812C36.9781 63.2812 37.5 62.7594 37.5 62.1094V59.7656C37.5 59.1156 36.9781 58.5938 36.3281 58.5938ZM42.1875 58.5938C41.5375 58.5938 41.0156 59.1156 41.0156 59.7656V62.1094C41.0156 62.7594 41.5375 63.2812 42.1875 63.2812C42.8375 63.2812 43.3594 62.7594 43.3594 62.1094V59.7656C43.3594 59.1156 42.8375 58.5938 42.1875 58.5938ZM53.9062 58.5938C53.2562 58.5938 52.7344 59.1156 52.7344 59.7656V62.1094C52.7344 62.7594 53.2562 63.2812 53.9062 63.2812C54.5563 63.2812 55.0781 62.7594 55.0781 62.1094V59.7656C55.0781 59.1156 54.5563 58.5938 53.9062 58.5938ZM59.7656 58.5938C59.1156 58.5938 58.5938 59.1156 58.5938 59.7656V62.1094C58.5938 62.7594 59.1156 63.2812 59.7656 63.2812C60.4156 63.2812 60.9375 62.7594 60.9375 62.1094V59.7656C60.9375 59.1156 60.4156 58.5938 59.7656 58.5938ZM65.625 58.5938C64.975 58.5938 64.4531 59.1156 64.4531 59.7656V62.1094C64.4531 62.7594 64.975 63.2812 65.625 63.2812C66.275 63.2812 66.7969 62.7594 66.7969 62.1094V59.7656C66.7969 59.1156 66.275 58.5938 65.625 58.5938Z" fill="#E4B564"/>
</svg>

<svg width="75" height="75" fill="none" xmlns="http://www.w3.org/2000/svg"><path d="M5.86 4.688a3.522 3.522 0 00-3.516 3.515v9.375c0 .902.352 1.721.915 2.344a3.487 3.487 0 00-.915 2.344v11.718c0 .902.352 1.722.915 2.344a3.488 3.488 0 00-.915 2.344V50.39c0 .901.352 1.72.915 2.343a3.487 3.487 0 00-.915 2.344v9.375a3.522 3.522 0 003.515 3.516h16.407c.901 0 1.72-.353 2.343-.916a3.487 3.487 0 002.344.916h18.75a3.49 3.49 0 002.344-.916 3.487 3.487 0 002.344.916h18.75a3.522 3.522 0 003.515-3.516v-9.375c0-.902-.352-1.721-.915-2.344a3.487 3.487 0 00.915-2.343V38.67c0-.9-.352-1.72-.915-2.343a3.487 3.487 0 00.915-2.344V22.266c0-.902-.352-1.722-.915-2.344a3.487 3.487 0 00.915-2.344V8.203a3.522 3.522 0 00-3.515-3.515h-5.86c-.901 0-1.72.352-2.343.915a3.488 3.488 0 00-2.344-.915h-18.75c-.902 0-1.721.352-2.344.915a3.488 3.488 0 00-2.344-.915h-18.75c-.901 0-1.72.352-2.343.915a3.488 3.488 0 00-2.344-.915h-5.86zm0 2.343h5.859c.645 0 1.172.527 1.172 1.172v9.375c0 .646-.527 1.172-1.172 1.172h-5.86a1.174 1.174 0 01-1.171-1.172V8.203c0-.645.526-1.172 1.171-1.172zm10.546 0h18.75c.646 0 1.172.527 1.172 1.172v9.375c0 .646-.526 1.172-1.172 1.172h-18.75a1.174 1.174 0 01-1.172-1.172V8.203c0-.645.527-1.172 1.172-1.172zm23.438 0h18.75c.645 0 1.172.527 1.172 1.172v9.375c0 .646-.527 1.172-1.172 1.172h-18.75a1.174 1.174 0 01-1.172-1.172V8.203c0-.645.526-1.172 1.172-1.172zm23.437 0h5.86c.645 0 1.171.527 1.171 1.172v9.375c0 .646-.526 1.172-1.171 1.172h-5.86a1.174 1.174 0 01-1.172-1.172V8.203c0-.645.527-1.172 1.172-1.172zM5.86 21.094h16.407c.645 0 1.172.526 1.172 1.172v11.718c0 .646-.527 1.172-1.172 1.172H5.859a1.174 1.174 0 01-1.171-1.172V22.266c0-.646.526-1.172 1.171-1.172zm21.094 0h18.75c.646 0 1.172.526 1.172 1.172v11.718c0 .646-.526 1.172-1.172 1.172h-18.75a1.174 1.174 0 01-1.172-1.172V22.266c0-.646.527-1.172 1.172-1.172zm23.438 0h18.75c.645 0 1.171.526 1.171 1.172v11.718c0 .646-.526 1.172-1.171 1.172H50.39a1.174 1.174 0 01-1.172-1.172V22.266c0-.646.526-1.172 1.172-1.172zM5.859 37.5h5.86c.645 0 1.172.526 1.172 1.172V50.39c0 .645-.527 1.172-1.172 1.172h-5.86a1.174 1.174 0 01-1.171-1.172V38.67c0-.645.526-1.171 1.171-1.171zm10.547 0h18.75c.646 0 1.172.526 1.172 1.172V50.39c0 .645-.526 1.172-1.172 1.172h-18.75a1.174 1.174 0 01-1.172-1.172V38.67c0-.645.527-1.171 1.172-1.171zm23.438 0h18.75c.645 0 1.172.526 1.172 1.172V50.39c0 .645-.527 1.172-1.172 1.172h-18.75a1.174 1.174 0 01-1.172-1.172V38.67c0-.645.526-1.171 1.172-1.171zm23.437 0h5.86c.645 0 1.171.526 1.171 1.172V50.39c0 .645-.526 1.172-1.171 1.172h-5.86a1.174 1.174 0 01-1.172-1.172V38.67c0-.645.527-1.171 1.172-1.171zM5.86 53.906h16.407c.645 0 1.172.527 1.172 1.172v9.375c0 .646-.527 1.172-1.172 1.172H5.859a1.174 1.174 0 01-1.171-1.172v-9.375c0-.645.526-1.172 1.171-1.172zm21.094 0h18.75c.646 0 1.172.527 1.172 1.172v9.375c0 .646-.526 1.172-1.172 1.172h-18.75a1.174 1.174 0 01-1.172-1.172v-9.375c0-.645.527-1.172 1.172-1.172zm23.438 0h18.75c.645 0 1.171.527 1.171 1.172v9.375c0 .646-.526 1.172-1.171 1.172H50.39a1.174 1.174 0 01-1.172-1.172v-9.375c0-.645.526-1.172 1.172-1.172zM8.203 58.594c-.65 0-1.172.522-1.172 1.172v2.343c0 .65.522 1.172 1.172 1.172.65 0 1.172-.522 1.172-1.172v-2.343c0-.65-.522-1.172-1.172-1.172zm5.86 0c-.65 0-1.172.522-1.172 1.172v2.343c0 .65.521 1.172 1.171 1.172s1.172-.522 1.172-1.172v-2.343c0-.65-.521-1.172-1.171-1.172zm5.859 0c-.65 0-1.172.522-1.172 1.172v2.343c0 .65.522 1.172 1.172 1.172.65 0 1.172-.522 1.172-1.172v-2.343c0-.65-.522-1.172-1.172-1.172zm10.547 0c-.65 0-1.172.522-1.172 1.172v2.343c0 .65.522 1.172 1.172 1.172.65 0 1.172-.522 1.172-1.172v-2.343c0-.65-.522-1.172-1.172-1.172zm5.86 0a1.17 1.17 0 00-1.173 1.172v2.343c0 .65.522 1.172 1.172 1.172.65 0 1.172-.522 1.172-1.172v-2.343c0-.65-.522-1.172-1.172-1.172zm5.858 0c-.65 0-1.171.522-1.171 1.172v2.343c0 .65.522 1.172 1.172 1.172.65 0 1.171-.522 1.171-1.172v-2.343c0-.65-.522-1.172-1.172-1.172zm11.72 0a1.17 1.17 0 00-1.173 1.172v2.343c0 .65.522 1.172 1.172 1.172.65 0 1.172-.522 1.172-1.172v-2.343c0-.65-.522-1.172-1.172-1.172zm5.859 0c-.65 0-1.172.522-1.172 1.172v2.343c0 .65.522 1.172 1.172 1.172.65 0 1.172-.522 1.172-1.172v-2.343c0-.65-.522-1.172-1.172-1.172zm5.859 0c-.65 0-1.172.522-1.172 1.172v2.343c0 .65.522 1.172 1.172 1.172.65 0 1.172-.522 1.172-1.172v-2.343c0-.65-.522-1.172-1.172-1.172z" fill="#E4B564"/></svg>
